X:28
T:Banks Of The Suir, The
R:slow air
D:Se\'an Ryan: Si\'uil Uait
Z:id:hn-slowair-28
M:3/4
L:1/8
Q:1/4=70
K:G
G>A | B e2 ded | G4 AG/D/ | E2 HD2 G>A |
B d3 BA/G/ | A2 G3 A | HB4 GA |
B e2 ded | G4 AG/D/ | E2 HD2 G>A |
B d3 BA/G/ | A2 G3 E | HG4 ||
G>A | B d3 ef | g4 fe | f Hd3 de/f/ |
g3 efe | dG3 Bd | He4 de/f/ |
g3 efe | dG3 AG/D/ | E2 HD2 G>A |
B d3 BA/G/ | A2 G3 E | HG4 ||

